communes/111.svg

<?xml version="1.0" encoding="UTF-8" standalone="no"?>
<svg
   xmlns:dc="http://purl.org/dc/elements/1.1/"
   xmlns:cc="http://creativecommons.org/ns#"
   xmlns:rdf="http://www.w3.org/1999/02/22-rdf-syntax-ns#"
   xmlns:svg="http://www.w3.org/2000/svg"
   xmlns="http://www.w3.org/2000/svg"
   xmlns:sodipodi="http://sodipodi.sourceforge.net/DTD/sodipodi-0.dtd"
   xmlns:inkscape="http://www.inkscape.org/namespaces/inkscape"
   version="1.0"
   width="221.6312"
   height="259.60638"
   id="svg2780"
   sodipodi:docname="111.svg">
  <metadata
     id="metadata20">
    <rdf:RDF>
      <cc:Work
         rdf:about="">
        <dc:format>image/svg+xml</dc:format>
        <dc:type
           rdf:resource="http://purl.org/dc/dcmitype/StillImage" />
      </cc:Work>
    </rdf:RDF>
  </metadata>
  <sodipodi:namedview
     pagecolor="#ffffff"
     bordercolor="#666666"
     borderopacity="1"
     objecttolerance="10"
     gridtolerance="10"
     guidetolerance="10"
     inkscape:pageopacity="0"
     inkscape:pageshadow="2"
     inkscape:window-width="640"
     inkscape:window-height="480"
     id="namedview18" />
  <defs
     id="defs2782" />
  <g
     transform="translate(-44.833062,-783.18137)"
     id="layer1">
    <path
       d="M 45.833062,784.18137 L 49.826351,951.92506 C 52.678694,1071.742 258.6186,1071.742 261.47096,951.92506 L 265.46425,784.18137 L 45.833062,784.18137 z"
       id="path3282"
       style="fill:#ffe739;fill-opacity:1;fill-rule:evenodd;stroke:#000000;stroke-width:2;stroke-linecap:butt;stroke-miterlimit:4;stroke-dashoffset:0;stroke-opacity:1" />
    <path
       d="M 160.87272,826.99941 C 146.15983,826.73511 139.72844,828.49713 135.85199,828.58523 C 131.88743,828.67333 126.86567,827.43991 125.10365,825.85409 C 123.38974,824.31157 121.4034,822.50625 123.07732,820.56802 C 124.79524,818.57886 125.93592,818.93751 127.04188,819.95131 C 128.09909,820.92042 132.14955,822.25551 133.73757,822.50625 C 135.41149,822.77055 140.53835,821.64183 143.7811,822.15384 C 147.02386,822.66585 158.494,824.18017 160.87272,826.99941 z"
       id="path4339"
       style="opacity:1;fill:#b30f18;fill-opacity:1;fill-rule:evenodd;stroke:#000000;stroke-width:1px;stroke-linecap:butt;stroke-linejoin:miter;marker:none;marker-start:none;marker-mid:none;marker-end:none;stroke-miterlimit:4;stroke-dasharray:none;stroke-dashoffset:0;stroke-opacity:1;visibility:visible;display:inline;overflow:visible;enable-background:accumulate" />
    <path
       d="M 189.74854,802.43613 C 192.68461,798.20722 189.76846,795.49708 187.85306,793.42844 C 185.93766,791.3598 182.8735,794.2396 181.41098,796.38295 C 176.25706,795.9865 173.26033,796.23073 170.08869,796.6775 C 166.94321,797.12058 162.16543,800.18993 160.55238,801.92706 C 158.26176,804.39389 152.96463,804.2145 145.49777,804.0308 C 138.03092,803.84711 136.43848,808.72598 136.61468,812.25003 C 136.79088,815.77407 140.16895,816.60346 140.16895,816.60346 L 141.40237,820.68635 L 143.6565,816.46819 L 145.1391,820.66498 L 146.86464,816.69157 C 146.86464,816.69157 150.0496,817.68869 152.93919,819.00801 C 155.70682,820.27166 159.5913,823.00072 159.43288,826.88993 C 159.26736,830.95327 156.51628,832.90016 154.52944,832.81408 C 152.5426,832.728 152.85552,829.02573 152.50311,827.35181 C 151.3578,829.02573 150.02117,831.60204 148.78775,831.42584 C 147.55434,831.24964 147.66512,829.45921 147.04528,827.20325 C 145.95913,828.98664 146.30818,829.49953 145.17118,830.18174 C 144.03417,830.86395 142.00455,832.7657 141.93097,834.75231 C 141.85739,836.73892 143.93512,838.61757 146.07173,839.33357 C 148.25086,840.06382 165.10158,842.68141 166.4489,843.27231 C 167.79622,843.86321 167.03981,845.85306 166.5112,846.73407 C 165.98259,847.61508 158.40589,846.91027 156.29146,846.91027 C 154.17704,846.91027 152.3118,847.15946 148.96395,849.62629 C 145.61611,852.09312 140.83727,857.83481 139.42765,858.04124 C 137.86828,858.26961 117.84546,846.96188 111.39896,841.80925 C 105.1383,836.80517 105.47222,836.67649 105.47222,830.71218 C 105.47222,824.87246 111.75136,823.7835 112.85133,817.35103 C 113.97201,810.79748 111.20326,810.48495 108.54063,807.61715 C 108.30569,810.14272 108.97487,814.71502 107.58663,814.82007 C 106.32224,814.91575 104.87082,804.33322 97.968494,803.38829 C 99.874759,806.39086 100.65968,809.76721 99.20191,812.52059 C 97.877799,808.74195 95.681531,804.83873 90.744198,804.79791 C 92.864023,808.0799 95.108441,811.98485 94.11342,815.39143 C 91.659109,813.20402 88.831017,808.64932 82.638891,809.20297 C 84.694585,812.66828 89.242156,816.1336 88.432191,819.97269 C 85.592799,816.38502 82.981242,816.74285 79.914016,817.05909 C 83.402644,820.42313 83.087699,821.2341 83.872308,823.12296 C 84.656917,825.01182 83.345569,825.89793 83.270715,828.15098 C 83.180118,830.8779 87.566705,831.94383 87.520948,833.84107 C 87.478194,835.61378 87.851975,841.32341 90.318808,845.72847 C 92.785641,850.13352 95.708095,853.10758 102.75618,861.38909 C 109.80428,869.6706 114.09101,874.75024 130.30162,884.96997 C 130.30162,884.96997 144.13351,913.25045 159.90362,929.72537 C 145.98364,928.66816 140.78566,935.36384 137.26161,939.41649 C 133.73757,943.46914 130.73165,952.63169 130.74213,954.56989 L 130.91833,987.16732 C 130.93929,991.0442 123.45504,994.74229 119.02467,993.0701 C 114.62273,991.40864 111.62418,986.63871 107.57152,985.2291 C 103.59737,983.84679 99.554315,983.81948 95.854066,987.69593 C 98.818373,987.30069 104.25304,987.02049 105.28089,989.63416 C 96.79381,988.5182 94.20951,990.4858 91.977615,994.03921 C 97.909759,992.98199 102.78469,992.01289 104.57608,994.92022 C 98.438369,995.39008 92.741157,999.20778 92.153817,1003.9065 C 99.49558,1001.1167 101.55127,999.82446 104.66418,1002.1445 C 100.84646,1003.2311 95.971533,1006.7845 95.325459,1010.426 C 98.790773,1008.5759 102.07989,1007.5187 105.7214,1007.783 C 103.19583,1010.1617 99.999356,1012.7389 100.08292,1016.4169 C 102.54975,1014.0382 105.88635,1012.6273 108.27633,1012.8929 C 110.65506,1013.1572 113.78068,1013.8059 116.11734,1010.6903 C 118.49607,1007.5186 127.83984,1009.8606 133.38516,1009.1926 C 139.36448,1008.4723 146.58638,1002.0551 146.77654,997.38705 C 146.9667,992.63089 154.83779,967.30051 171.09246,960.20837 C 179.77043,974.1724 197.34661,995.09643 198.93243,996.15364 C 200.51825,997.21085 200.69445,999.32528 199.46103,1000.7349 C 198.22762,1002.1445 192.91306,1005.221 191.88433,1004.9638 C 190.8556,1004.7066 189.07578,1001.3091 186.11833,1001.3845 C 183.07279,1001.4599 176.72341,1002.636 175.05701,1006.8139 C 178.75726,1004.7655 184.48383,1005.4043 185.45295,1007.1663 C 180.31371,1007.9005 177.1127,1010.0443 174.4403,1013.1572 C 178.63979,1011.9531 182.22257,1011.542 185.71725,1011.8356 C 181.07726,1013.1278 175.11574,1018.2964 174.5284,1021.7911 C 179.0803,1019.4711 184.6013,1017.063 189.4175,1016.4169 C 185.77599,1019.3536 181.60587,1023.2595 181.6646,1027.3415 C 186.06966,1024.4635 190.91522,1020.5283 194.87977,1018.7075 C 192.23674,1022.026 189.04146,1026.121 189.0651,1028.9273 C 191.79624,1026.7248 194.0623,1024.6734 196.28939,1023.9055 C 198.51649,1023.1375 202.19963,1023.29 205.27571,1020.6458 C 208.40214,1017.9583 218.84329,1004.6994 219.9005,1002.1445 C 220.81684,999.93001 221.66253,997.38706 219.7243,995.97744 C 217.78608,994.56782 215.31924,991.04377 213.38102,988.57694 C 211.44279,986.11011 210.73798,978.70961 208.97596,971.30911 C 207.21394,963.90861 206.68532,954.39369 206.33292,949.63623 C 205.98094,944.88445 205.96308,943.46914 207.03774,943.55724 C 208.19993,943.65252 208.70627,945.49255 211.44279,945.58358 C 214.0913,945.67167 214.25615,943.24857 214.17393,938.27117 C 214.09171,933.29378 209.32836,931.57548 206.50912,931.22308 C 203.68989,930.87067 202.98508,930.07777 202.80888,928.31574 C 202.63268,926.55372 199.46103,905.76185 198.22762,892.54667 C 196.9942,879.3315 198.1621,881.78153 200.60635,878.53859 C 203.09273,875.23975 202.07801,875.04018 201.66356,872.54771 C 201.26335,870.14094 203.1833,870.32316 205.80432,873.95733 C 206.7514,868.60518 204.13039,864.97101 203.07318,863.91379 C 202.01596,862.85658 201.95114,861.14894 202.98508,861.88747 C 204.2185,862.76848 205.19829,863.50978 206.33292,864.3543 C 206.48332,861.61064 206.55601,858.29066 203.11853,855.57441 C 199.74078,852.90537 202.22888,852.54141 206.15672,854.48697 C 205.84837,852.19634 205.09951,849.72951 202.63268,846.91027 C 200.16584,844.09103 200.72143,840.4127 201.25328,834.25393 C 201.77446,828.21883 199.05702,818.92433 198.35221,816.28129 C 197.6474,813.63826 200.04213,812.08838 201.97062,810.84926 C 203.89912,809.61014 203.06948,806.09498 202.98508,802.53751 C 202.90071,798.98104 198.62139,800.00257 189.74854,802.43613 z"
       id="path4346"
       style="opacity:1;fill:#000000;fill-opacity:1;fill-rule:evenodd;stroke:none;stroke-width:1px;stroke-linecap:butt;stroke-linejoin:miter;marker:none;marker-start:none;marker-mid:none;marker-end:none;stroke-miterlimit:4;stroke-dasharray:none;stroke-dashoffset:0;stroke-opacity:0.55035975;visibility:visible;display:inline;overflow:visible;enable-background:accumulate" />
    <path
       d="M 123.8463,1009.8756 C 122.74553,1009.1562 121.47933,1009.6494 119.2286,1009.5014 C 117.10195,1009.3615 109.06075,1005.2908 109.14422,997.41629"
       id="path4325"
       style="fill:none;fill-opacity:0.75;fill-rule:evenodd;stroke:#ffe739;stroke-width:1px;stroke-linecap:round;stroke-linejoin:round;stroke-opacity:1" />
    <path
       d="M 192.62211,1008.3805 C 193.86804,1012.3675 197.35667,1016.3545 200.22233,1018.0989"
       id="path4327"
       style="fill:none;fill-opacity:0.75;fill-rule:evenodd;stroke:#ffe739;stroke-width:1px;stroke-linecap:round;stroke-linejoin:round;stroke-opacity:1" />
    <path
       d="M 97.556992,851.39229 C 103.91128,833.32618 92.697832,832.70321 102.66534,818.12573"
       id="path4331"
       style="fill:none;fill-opacity:0.75;fill-rule:evenodd;stroke:#ffe739;stroke-width:1px;stroke-linecap:round;stroke-linejoin:round;stroke-opacity:1" />
    <path
       d="M 88.461641,829.83755 C 94.691334,816.13222 100.54725,817.00438 106.27856,816.25681"
       id="path4333"
       style="fill:none;fill-opacity:0.75;fill-rule:evenodd;stroke:#ffe739;stroke-width:1px;stroke-linecap:round;stroke-linejoin:round;stroke-opacity:1" />
    <path
       d="M 159.48014,807.03687 C 165.46065,805.54175 169.07387,806.4139 170.56899,807.65984"
       id="path4335"
       style="opacity:1;fill:none;fill-opacity:1;fill-rule:evenodd;stroke:#ffe739;stroke-width:1px;stroke-linecap:round;stroke-linejoin:round;marker:none;marker-start:none;marker-mid:none;marker-end:none;stroke-miterlimit:4;stroke-dasharray:none;stroke-dashoffset:0;stroke-opacity:1;visibility:visible;display:inline;overflow:visible;enable-background:accumulate" />
    <path
       d="M 168.07712,809.59106 A 3.2394404,1.6001772 0 1 1 161.59824,809.59106 A 3.2394404,1.6001772 0 1 1 168.07712,809.59106 z"
       transform="translate(0.4405058,0.528607)"
       id="path4337"
       style="opacity:1;fill:none;fill-opacity:1;fill-rule:evenodd;stroke:#ffe739;stroke-width:1px;stroke-linecap:round;stroke-linejoin:round;marker:none;marker-start:none;marker-mid:none;marker-end:none;stroke-miterlimit:4;stroke-dasharray:none;stroke-dashoffset:0;stroke-opacity:1;visibility:visible;display:inline;overflow:visible;enable-background:accumulate" />
    <path
       d="M 169.10155,845.09664 C 179.9125,845.77122 184.17813,842.24192 188.39051,838.65899 C 193.02339,834.71841 193.69444,824.31072 191.26762,818.30136 C 188.82826,812.26094 185.17064,808.4351 191.83533,800.20078"
       id="path3318"
       style="opacity:1;fill:none;fill-opacity:1;fill-rule:evenodd;stroke:#ffe739;stroke-width:1px;stroke-linecap:round;stroke-linejoin:round;marker:none;marker-start:none;marker-mid:none;marker-end:none;stroke-miterlimit:4;stroke-dasharray:none;stroke-dashoffset:0;stroke-opacity:1;visibility:visible;display:inline;overflow:visible;enable-background:accumulate" />
    <path
       d="M 156.82007,902.76641 C 144.39781,915.98158 136.5568,917.3031 131.27073,919.24132 C 124.36208,921.77449 111.09461,924.27105 106.77861,925.58461 C 102.46261,926.89816 97.439887,925.67271 95.677863,924.43929 C 94.063974,923.30957 93.21103,922.32487 89.686984,922.67727 C 86.162937,923.02968 84.131207,922.81401 83.079397,921.00335 C 82.065609,919.25814 81.086881,919.22073 78.145732,919.41753 C 75.116869,919.6202 72.859662,918.62461 70.392829,917.3031 C 77.059943,914.6934 81.060749,915.09117 78.354422,911.47049 C 75.879894,908.15992 74.044586,910.03701 69.508259,913.05999 C 69.638965,906.708 72.853212,905.20157 80.120113,905.89767 C 79.643263,903.66628 74.937557,901.08249 70.760458,901.22983 C 72.928791,897.30681 80.8237,897.17214 84.049247,900.47341 C 84.252013,897.08037 79.609215,895.53745 75.495024,895.40415 C 80.799729,888.32705 86.280636,893.49601 89.911419,897.69586 C 89.892636,895.33743 87.23808,891.51766 84.216594,888.50614 C 89.23836,887.27272 92.588353,889.78858 94.831043,892.03127 C 97.073732,894.27396 97.909397,895.9239 98.033991,898.29118 C 98.158585,900.65847 98.672076,905.5755 100.66558,905.82469 C 102.65908,906.07388 104.59198,905.31404 106.10236,904.08664 L 131.69571,883.28831 C 133.06996,882.17153 141.1337,876.80943 143.28294,869.83218"
       id="path4321"
       style="opacity:1;fill:#000000;fill-opacity:1;fill-rule:evenodd;stroke:#ffe739;stroke-width:1px;stroke-linecap:round;stroke-linejoin:round;marker:none;marker-start:none;marker-mid:none;marker-end:none;stroke-miterlimit:4;stroke-dasharray:none;stroke-dashoffset:0;stroke-opacity:1;visibility:visible;display:inline;overflow:visible;enable-background:accumulate" />
    <path
       d="M 97.788581,909.53858 C 94.919625,912.12724 92.791883,915.40884 91.344899,918.3382"
       id="path4329"
       style="fill:none;fill-opacity:0.75;fill-rule:evenodd;stroke:#ffe739;stroke-width:1px;stroke-linecap:round;stroke-linejoin:round;stroke-opacity:1" />
    <path
       d="M 161.75374,927.96334 C 161.57754,930.07777 161.60786,934.99915 163.16335,938.88788 C 164.74918,942.85244 166.07639,944.01911 165.10158,945.58357 C 164.08754,947.21101 164.30786,949.10762 169.15423,949.10762 C 173.9998,949.10762 174.0879,945.58357 171.97347,943.11674 C 169.85904,940.64991 166.7755,933.60181 165.89449,929.54916 C 165.00932,925.47736 161.92949,925.85439 161.75374,927.96334 z"
       id="path4323"
       style="opacity:1;fill:#000000;fill-opacity:1;fill-rule:evenodd;stroke:#ffe739;stroke-width:1px;stroke-linecap:round;stroke-linejoin:round;marker:none;marker-start:none;marker-mid:none;marker-end:none;stroke-miterlimit:4;stroke-dasharray:none;stroke-dashoffset:0;stroke-opacity:1;visibility:visible;display:inline;overflow:visible;enable-background:accumulate" />
  </g>
</svg>

<?xml version="1.0" encoding="UTF-8"?>
<svg version="1.0" viewBox="0 0 221.63 259.61" xmlns="http://www.w3.org/2000/svg" xmlns:cc="http://creativecommons.org/ns#" xmlns:dc="http://purl.org/dc/elements/1.1/" xmlns:rdf="http://www.w3.org/1999/02/22-rdf-syntax-ns#">
<metadata>
<rdf:RDF>
<cc:Work rdf:about="">
<dc:format>image/svg+xml</dc:format>
<dc:type rdf:resource="http://purl.org/dc/dcmitype/StillImage"/>
</cc:Work>
</rdf:RDF>
</metadata>
<g transform="translate(-44.833 -783.18)">
<path d="m45.833 784.18 3.9933 167.74c2.8523 119.82 208.79 119.82 211.64 0l3.9933-167.74h-219.63z" fill="#ffe739" fill-rule="evenodd" stroke="#000" stroke-width="2"/>
<path d="m160.87 827c-14.713-0.2643-21.144 1.4977-25.021 1.5858-3.9646 0.0881-8.9863-1.1453-10.748-2.7311-1.7139-1.5425-3.7002-3.3478-2.0263-5.2861 1.7179-1.9892 2.8586-1.6305 3.9646-0.61671 1.0572 0.96911 5.1077 2.3042 6.6957 2.5549 1.6739 0.2643 6.8008-0.86442 10.044-0.35241 3.2428 0.51201 14.713 2.0263 17.092 4.8456z" fill="#b30f18" fill-rule="evenodd" stroke="#000" stroke-width="1px"/>
<path d="m189.75 802.44c2.9361-4.2289 0.01992-6.939-1.8955-9.0077s-4.9796 0.81116-6.4421 2.9545c-5.1539-0.39645-8.1506-0.15222-11.322 0.29455-3.1455 0.44308-7.9233 3.5124-9.5363 5.2496-2.2906 2.4668-7.5878 2.2874-15.055 2.1037-7.4668-0.18369-9.0593 4.6952-8.8831 8.2192 0.1762 3.524 3.5543 4.3534 3.5543 4.3534l1.2334 4.0829 2.2541-4.2182 1.4826 4.1968 1.7255-3.9734s3.185 0.99712 6.0746 2.3164c2.7676 1.2636 6.6521 3.9927 6.4937 7.8819-0.16552 4.0633-2.9166 6.0102-4.9034 5.9242s-1.6739-3.7884-2.0263-5.4623c-1.1453 1.6739-2.4819 4.2502-3.7154 4.074-1.2334-0.1762-1.1226-1.9666-1.7425-4.2226-1.0862 1.7834-0.7371 2.2963-1.8741 2.9785-1.137 0.68221-3.1666 2.584-3.2402 4.5706s2.0042 3.8653 4.1408 4.5813c2.1791 0.73025 19.03 3.3478 20.377 3.9387s0.59091 2.5808 0.0623 3.4618-8.1053 0.1762-10.22 0.1762c-2.1144 0-3.9797 0.24919-7.3275 2.716-3.3478 2.4668-8.1267 8.2085-9.5363 8.415-1.5594 0.22837-21.582-11.079-28.029-16.232-6.2607-5.0041-5.9267-5.1328-5.9267-11.097 0-5.8397 6.2791-6.9287 7.3791-13.361 1.1207-6.5536-1.6481-6.8661-4.3107-9.7339-0.23494 2.5256 0.43424 7.0979-0.954 7.2029-1.2644 0.09568-2.7158-10.487-9.6181-11.432 1.9063 3.0026 2.6912 6.3789 1.2334 9.1323-1.3241-3.7786-3.5204-7.6819-8.4577-7.7227 2.1198 3.282 4.3642 7.1869 3.3692 10.594-2.4543-2.1874-5.2824-6.7421-11.475-6.1885 2.0557 3.4653 6.6033 6.9306 5.7933 10.77-2.8394-3.5877-5.4509-3.2298-8.5182-2.9136 3.4886 3.364 3.1737 4.175 3.9583 6.0639s-0.52674 2.775-0.60159 5.028c-0.090597 2.7269 4.296 3.7928 4.2502 5.6901-0.042754 1.7727 0.33103 7.4823 2.7979 11.887 2.4668 4.405 5.3893 7.3791 12.437 15.661 7.0481 8.2815 11.335 13.361 27.545 23.581 0 0 13.832 28.28 29.602 44.755-13.92-1.0572-19.118 5.6385-22.642 9.6911-3.524 4.0526-6.53 13.215-6.5195 15.153l0.1762 32.597c0.02096 3.8769-7.4633 7.575-11.894 5.9028-4.4019-1.6615-7.4005-6.4314-11.453-7.841-3.9742-1.3823-8.0172-1.4096-11.717 2.4668 2.9643-0.39524 8.399-0.67544 9.4268 1.9382-8.4871-1.116-11.071 0.85164-13.303 4.405 5.9321-1.0572 10.807-2.0263 12.598 0.88101-6.1377 0.46986-11.835 4.2876-12.422 8.9863 7.3418-2.7898 9.3975-4.082 12.51-1.762-3.8177 1.0866-8.6926 4.64-9.3387 8.2815 3.4653-1.8501 6.7544-2.9073 10.396-2.643-2.5256 2.3787-5.722 4.9559-5.6385 8.6339 2.4668-2.3787 5.8034-3.7896 8.1934-3.524 2.3787 0.2643 5.5044 0.913 7.841-2.2026 2.3787-3.1717 11.722-0.8297 17.268-1.4977 5.9793-0.7203 13.201-7.1375 13.391-11.806 0.19016-4.7562 8.0612-30.087 24.316-37.179 8.678 13.964 26.254 34.888 27.84 35.945s1.762 3.1716 0.5286 4.5813c-1.2334 1.4096-6.548 4.4861-7.5767 4.2289s-2.8086-3.6547-5.766-3.5793c-3.0455 0.0754-9.3949 1.2515-11.061 5.4294 3.7002-2.0484 9.4268-1.4096 10.396 0.3524-5.1392 0.7342-8.3402 2.878-11.013 5.9909 4.1995-1.2041 7.7823-1.6152 11.277-1.3216-4.64 1.2922-10.602 6.4608-11.189 9.9555 4.5519-2.32 10.073-4.7281 14.889-5.3742-3.6415 2.9367-7.8116 6.8426-7.7529 10.925 4.4051-2.878 9.2506-6.8132 13.215-8.634-2.643 3.3185-5.8383 7.4135-5.8147 10.22 2.7311-2.2025 4.9972-4.2539 7.2243-5.0218 2.2271-0.768 5.9102-0.6155 8.9863-3.2597 3.1264-2.6875 13.568-15.946 14.625-18.501 0.91634-2.2145 1.762-4.7574-0.1762-6.1671-1.9382-1.4096-4.4051-4.9337-6.3433-7.4005-1.9382-2.4668-2.643-9.8673-4.4051-17.268s-2.2906-16.915-2.643-21.673c-0.35198-4.7518-0.36984-6.1671 0.70482-6.079 1.1622 0.09528 1.6685 1.9353 4.405 2.0263 2.6485 0.08809 2.8134-2.335 2.7311-7.3124-0.08222-4.9774-4.8456-6.6957-7.6648-7.0481-2.8192-0.35241-3.524-1.1453-3.7002-2.9073-0.1762-1.762-3.3478-22.554-4.5813-35.769-1.2334-13.215-0.06552-10.765 2.3787-14.008 2.4864-3.2988 1.4717-3.4984 1.0572-5.9909-0.40021-2.4068 1.5197-2.2246 4.1408 1.4096 0.94708-5.3522-1.6739-8.9863-2.7311-10.044-1.0572-1.0572-1.122-2.7648-0.0881-2.0263 1.2334 0.88101 2.2132 1.6223 3.3478 2.4668 0.1504-2.7437 0.22309-6.0636-3.2144-8.7799-3.3778-2.669-0.88965-3.033 3.0382-1.0874-0.30835-2.2906-1.0572-4.7575-3.524-7.5767-2.4668-2.8192-1.9112-6.4976-1.3794-12.656 0.52118-6.0351-2.1963-15.33-2.9011-17.973-0.70481-2.643 1.6899-4.1929 3.6184-5.432 1.9285-1.2391 1.0989-4.7543 1.0145-8.3118-0.08437-3.5565-4.3637-2.5349-13.237-0.10138z" fill-rule="evenodd"/>
<path d="m123.85 1009.9c-1.1008-0.7194-2.367-0.2262-4.6177-0.3742-2.1266-0.1399-10.168-4.2106-10.084-12.085" fill="none" stroke="#ffe739" stroke-linecap="round" stroke-linejoin="round" stroke-width="1px"/>
<path d="m192.62 1008.4c1.2459 3.987 4.7346 7.974 7.6002 9.7184" fill="none" stroke="#ffe739" stroke-linecap="round" stroke-linejoin="round" stroke-width="1px"/>
<path d="m97.557 851.39c6.3543-18.066-4.8592-18.689 5.1083-33.267" fill="none" stroke="#ffe739" stroke-linecap="round" stroke-linejoin="round" stroke-width="1px"/>
<path d="m88.462 829.84c6.2297-13.705 12.086-12.833 17.817-13.581" fill="none" stroke="#ffe739" stroke-linecap="round" stroke-linejoin="round" stroke-width="1px"/>
<path d="m159.48 807.04c5.9805-1.4951 9.5937-0.62297 11.089 0.62297" fill="none" stroke="#ffe739" stroke-linecap="round" stroke-linejoin="round" stroke-width="1px"/>
<path transform="translate(.44051 .52861)" d="m168.08 809.59a3.2394 1.6002 0 1 1-6.4789 0 3.2394 1.6002 0 1 1 6.4789 0z" fill="none" stroke="#ffe739" stroke-linecap="round" stroke-linejoin="round" stroke-width="1px"/>
<path d="m169.1 845.1c10.811 0.67458 15.077-2.8547 19.289-6.4376 4.6329-3.9406 5.3039-14.348 2.8771-20.358-2.4394-6.0404-6.097-9.8663 0.56771-18.101" fill="none" stroke="#ffe739" stroke-linecap="round" stroke-linejoin="round" stroke-width="1px"/>
<path d="m156.82 902.77c-12.422 13.215-20.263 14.537-25.549 16.475-6.9086 2.5332-20.176 5.0297-24.492 6.3433-4.316 1.3136-9.3387 0.0881-11.101-1.1453-1.6139-1.1297-2.4668-2.1144-5.9909-1.762-3.524 0.35241-5.5558 0.13674-6.6076-1.6739-1.0138-1.7452-1.9925-1.7826-4.9337-1.5858-3.0289 0.20267-5.2861-0.79292-7.7529-2.1144 6.6671-2.6097 10.668-2.2119 7.9616-5.8326-2.4745-3.3106-4.3098-1.4335-8.8462 1.5895 0.13071-6.352 3.345-7.8584 10.612-7.1623-0.47685-2.2314-5.1826-4.8152-9.3597-4.6678 2.1683-3.923 10.063-4.0577 13.289-0.75642 0.20277-3.393-4.44-4.936-8.5542-5.0693 5.3047-7.0771 10.786-1.9081 14.416 2.2917-0.018783-2.3584-2.6733-6.1782-5.6948-9.1897 5.0218-1.2334 8.3718 1.2824 10.614 3.5251 2.2427 2.2427 3.0784 3.8926 3.2029 6.2599 0.12459 2.3673 0.63808 7.2843 2.6316 7.5335 1.9935 0.24919 3.9264-0.51065 5.4368-1.738l25.593-20.798c1.3742-1.1168 9.438-6.4789 11.587-13.456" fill-rule="evenodd" stroke="#ffe739" stroke-linecap="round" stroke-linejoin="round" stroke-width="1px"/>
<path d="m97.789 909.54c-2.869 2.5887-4.9967 5.8703-6.4437 8.7996" fill="none" stroke="#ffe739" stroke-linecap="round" stroke-linejoin="round" stroke-width="1px"/>
<path d="m161.75 927.96c-0.1762 2.1144-0.14588 7.0358 1.4096 10.925 1.5858 3.9646 2.913 5.1312 1.9382 6.6957-1.014 1.6274-0.79372 3.524 4.0526 3.524 4.8456 0 4.9337-3.524 2.8192-5.9909s-5.198-9.5149-6.079-13.568c-0.88517-4.0718-3.965-3.6948-4.1408-1.5858z" fill-rule="evenodd" stroke="#ffe739" stroke-linecap="round" stroke-linejoin="round" stroke-width="1px"/>
</g>
</svg>
